public/formular-icons/greece/lower-iota.svg

<svg style="vertical-align:-.023ex" xmlns="http://www.w3.org/2000/svg" width=".801ex" height="1.023ex" viewBox="0 -442 354 452" xmlns:xlink="http://www.w3.org/1999/xlink"><defs><path id="a" d="M139-10q-28 0-47 10T64 25 52 52t-4 22q0 15 7 35t30 90 50 176l2 9q2 10 3 13t5 12 6 13 9 9 13 8 17 3q12 0 23-7t12-25q0-6-11-52t-33-120-44-131q-11-33-11-53V39q0-4 4-8t12-4h5q59 0 108 51 17 20 26 36t9 24 5 11 18 4h11q3 0 5-1t3-3 0-6q0-37-56-95T145-10h-6Z"/></defs><g stroke="currentColor" fill="currentColor" stroke-width="0"><use data-c="1D704" xlink:href="#a" transform="scale(1 -1)"/></g></svg>

<svg style="vertical-align: -0.023ex" xmlns="http://www.w3.org/2000/svg" width="0.801ex" height="1.023ex" role="img" focusable="false" viewBox="0 -442 354 452" xmlns:xlink="http://www.w3.org/1999/xlink"><defs><path id="MJX-102-TEX-I-1D704" d="M139 -10Q111 -10 92 0T64 25T52 52T48 74Q48 89 55 109T85 199T135 375L137 384Q139 394 140 397T145 409T151 422T160 431T173 439T190 442Q202 442 213 435T225 410Q225 404 214 358T181 238T137 107Q126 74 126 54Q126 43 126 39T130 31T142 27H147Q206 27 255 78Q272 98 281 114T290 138T295 149T313 153Q321 153 324 153T329 152T332 149T332 143Q332 106 276 48T145 -10H139Z"></path></defs><g stroke="currentColor" fill="currentColor" stroke-width="0" transform="scale(1,-1)"><g data-mml-node="math"><g data-mml-node="mi"><use data-c="1D704" xlink:href="#MJX-102-TEX-I-1D704"></use></g></g></g></svg>
